public/images/icons/stake.svg

<svg width="18" height="18" viewBox="0 0 18 18" fill="none" xmlns="http://www.w3.org/2000/svg">
<path d="M3.59902 17.1C6.52306 15.75 7.98508 15.075 9.44711 15.075M15.2952 17.1C12.3711 15.75 10.9091 15.075 9.44711 15.075M9.44711 15.075V10.35M9.44711 10.35L8.9999 9.36821M9.44711 10.35V8.55002L9.89696 7.65002M8.9999 9.36821C8.9999 9.36821 4.5079 9.98865 2.69931 8.55002C1.16197 7.32715 0.899902 4.05002 0.899902 4.05002C0.899902 4.05002 4.99497 3.55642 6.79081 5.31821C8.02612 6.53009 8.9999 9.36821 8.9999 9.36821ZM9.89696 7.65002C9.89696 7.65002 10.3835 3.70266 12.1462 2.25002C13.6922 0.975978 17.0946 0.900024 17.0946 0.900024C17.0946 0.900024 17.2598 4.74149 15.745 6.30002C14.1112 7.98107 9.89696 7.65002 9.89696 7.65002Z" stroke="white" stroke-width="1.5" stroke-linecap="round"/>
</svg>

<svg xmlns="http://www.w3.org/2000/svg" width="18" height="18" fill="none" viewBox="0 0 18 18"><path stroke="#fff" stroke-linecap="round" stroke-width="1.5" d="M3.599 17.1c2.924-1.35 4.386-2.025 5.848-2.025m5.848 2.025c-2.924-1.35-4.386-2.025-5.848-2.025m0 0V10.35m0 0L9 9.368m.447.982v-1.8l.45-.9M9 9.368s-4.492.62-6.3-.818C1.161 7.327.9 4.05.9 4.05s4.095-.494 5.89 1.268C8.027 6.53 9 9.368 9 9.368Zm.897-1.718s.486-3.947 2.25-5.4C13.691.976 17.094.9 17.094.9s.165 3.841-1.35 5.4C14.11 7.981 9.896 7.65 9.896 7.65Z"/></svg>
